images/logo_facebook.svg

<svg width="19" height="20" fill="none" xmlns="http://www.w3.org/2000/svg"><path d="M18.8641 10.0335c0-5.08118-4.1041-9.200328-9.16667-9.200328C4.63482.833172.530762 4.95232.530762 10.0335c0 4.3148 2.959548 7.9352 6.952218 8.9295v-6.118H5.59274v-2.8115h1.89024V8.82206c0-3.1315 1.41196-4.58295 4.47512-4.58295.5807 0 1.5828.11427 1.9927.22857v2.54865c-.2164-.02286-.5921-.0343-1.059-.0343-1.5031 0-2.0838.57145-2.0838 2.0572v.99427h2.9941l-.5143 2.8115H10.808v6.3215c4.5388-.5502 8.0561-4.4291 8.0561-9.133Z" fill="#5F7896"/></svg>

<svg width="19" height="20" viewBox="0 0 19 20" fill="none" xmlns="http://www.w3.org/2000/svg">
<path d="M18.8641 10.0335C18.8641 4.95232 14.76 0.833172 9.69743 0.833172C4.63482 0.833172 0.530762 4.95232 0.530762 10.0335C0.530762 14.3483 3.49031 17.9687 7.48298 18.963V12.845H5.59274V10.0335H7.48298V8.82206C7.48298 5.69056 8.89494 4.23911 11.9581 4.23911C12.5388 4.23911 13.5409 4.35338 13.9508 4.46768V7.01633C13.7344 6.99347 13.3587 6.98203 12.8918 6.98203C11.3887 6.98203 10.808 7.55348 10.808 9.03923V10.0335H13.8021L13.2878 12.845H10.808V19.1665C15.3468 18.6163 18.8641 14.7374 18.8641 10.0335Z" fill="#5F7896"/>
</svg>
